icons/apphub.svg

<?xml version="1.0" encoding="UTF-8" standalone="no"?>
<svg width="256px" height="188px" viewBox="0 0 256 188" version="1.1" xmlns="http://www.w3.org/2000/svg" xmlns:xlink="http://www.w3.org/1999/xlink" preserveAspectRatio="xMidYMid">
    <g>
        <path d="M244.675204,104.605355 C237.22468,95.3667056 227.837021,89.257276 216.214203,86.5750874 C219.790454,81.0616997 221.727591,74.9522702 221.727591,68.2467987 C221.727591,58.8591385 218.44936,50.8125728 211.743888,44.1071013 C205.038417,37.4016298 196.991852,34.1233993 187.60419,34.1233993 C179.110593,34.1233993 171.809081,36.8055879 165.55064,42.3189756 C160.335274,29.5040745 151.990688,19.2223516 140.36787,11.4738068 C128.894063,3.87427241 116.228172,0 102.370198,0 C83.4458673,0 67.3527358,6.70547148 54.0908033,19.967404 C40.8288708,33.2293365 34.1233993,49.322468 34.1233993,68.2467987 C34.1233993,69.4388825 34.2724098,71.3760187 34.4214203,73.9091969 C23.9906869,78.8265425 15.6461001,86.1280559 9.38766007,95.9627475 C3.12922003,105.648429 0,116.377183 0,127.85099 C0,144.242143 5.81140862,158.398138 17.5832364,170.020955 C29.2060536,181.643772 43.3620489,187.60419 59.7532014,187.60419 L204.740397,187.60419 C218.896392,187.60419 230.96624,182.537835 240.949942,172.554133 C250.933643,162.570431 256,150.500582 256,136.344587 C255.850989,124.572759 252.125728,113.993015 244.675204,104.605355 L244.675204,104.605355 L244.675204,104.605355 Z M200.717113,187.60419 L179.557626,187.60419 L172.405122,165.25262 L131.12922,165.25262 L123.976717,187.60419 L102.817229,187.60419 L140.963912,81.2107101 L162.570431,81.2107101 L200.717113,187.60419 L200.717113,187.60419 L200.717113,187.60419 Z M136.493598,148.265424 L167.040745,148.265424 L151.841677,100.284051 L136.493598,148.265424 L136.493598,148.265424 Z" fill="#00A4D3"></path>
    </g>
</svg>

<svg xmlns="http://www.w3.org/2000/svg" viewBox="0 0 256 187.604">
  <path fill="#00a4d3" d="M244.675 104.605c-7.45-9.238-16.838-15.348-28.46-18.03 3.575-5.513 5.513-11.623 5.513-18.328 0-9.388-3.279-17.434-9.984-24.14-6.706-6.705-14.752-9.984-24.14-9.984-8.493 0-15.795 2.683-22.053 8.196-5.216-12.815-13.56-23.097-25.183-30.845C128.894 3.874 116.228 0 102.37 0 83.446 0 67.353 6.705 54.09 19.967 40.83 33.23 34.124 49.322 34.124 68.247c0 1.192.15 3.129.298 5.662-10.43 4.918-18.775 12.22-25.033 22.054C3.129 105.648 0 116.377 0 127.85c0 16.391 5.811 30.547 17.583 42.17 11.623 11.623 25.779 17.583 42.17 17.583H204.74c14.156 0 26.226-5.066 36.21-15.05 9.984-9.984 15.05-22.053 15.05-36.21-.149-11.771-3.874-22.351-11.325-31.739zm-43.958 83h-21.16l-7.152-22.352H131.13l-7.152 22.351h-21.16l38.147-106.393h21.606l38.147 106.393zm-64.223-39.34h30.547l-15.2-47.98z"/>
</svg>
